!!!!SEGMENT:23Miyakodori_c.krn
!!!OTL: 都鳥
!!!OPR:Eiga Banso Kyokusyu,jidai-geki,zenpen
!!!YOY:1929
!!!ONB:Happy,Lively
**kern
*clefG2
*k[]
*C:
*M2/4
=1
8eL
8eJ
8eeL
8eeJ
=2
8ccL
8ee
8cc
8bJ
=3
16ccLL
16b
16cc
16bJJ
8eL
8aJ
=4
8.aL
16fJk
8aL
8bJ
=5
8eL
16ccL
16ccJJ
8ccL
8ccJ
=6
8bL
8aJ
8bL
8ccJ
=7
8bL
8aJ
8eL
8fJ
=8
8.fL
16aJk
16fLL
16a
16f
16eJJ
=9
8aL
16aL
16aJJ
8bL
8ccJ
=10
8bL
8aJ
8fL
16fL
16fJJ
=11
4e
4r
==
*-
!!!ENC: Yukiko Yoden
!!!END: 2023/06/11
